src/assets/protocols/winnieswap-light.svg

<svg width="128" height="128" viewBox="0 0 128 128" fill="none" xmlns="http://www.w3.org/2000/svg">
<g clip-path="url(#clip0_1357_930)">
<rect width="128" height="128" fill="#FFA012"/>
<path d="M64 16C90.5097 16 112 37.4903 112 64C112 90.5097 90.5097 112 64 112C37.4903 112 16 90.5097 16 64C16 37.4903 37.4903 16 64 16ZM86.5586 38.9072C82.8805 36.5182 78.1173 36.9377 74.2949 39.5615C74.0486 39.7306 73.8131 39.8981 73.5859 40.0615L72.2656 41.0205C71.6178 41.4847 70.9987 41.8985 70.3242 42.2344C68.3118 41.6687 66.1909 41.3662 64 41.3662C61.8092 41.3662 59.6882 41.6687 57.6758 42.2344C57.0013 41.8985 56.3822 41.4847 55.7344 41.0205L54.4141 40.0615C54.1868 39.8981 53.9515 39.7307 53.7051 39.5615C49.8827 36.9376 45.1195 36.5182 41.4414 38.9072C36.282 42.2585 35.2109 49.867 39.0488 55.9014L39.1514 56.0635C39.2057 56.1494 39.2601 56.2357 39.3145 56.3223L39.6357 56.834C40.0113 57.4319 40.4027 58.0463 40.8535 58.6895C40.892 60.413 39.5498 62.3237 38.0898 64.4014C36.947 66.0278 35.732 67.7574 35.0508 69.5801C33.2942 73.7834 33.6635 79.1259 36.4619 83.749C39.4377 88.6651 44.3811 91.48 49.1572 91.5049C50.5863 91.5123 54.6479 91.6664 57.1611 91.7666C58.9671 93.4858 61.795 94.6172 64 94.6172C66.205 94.6172 69.0329 93.4858 70.8389 91.7666C73.3519 91.6664 77.4124 91.5123 78.8418 91.5049C83.6181 91.4801 88.5622 88.6653 91.5381 83.749C94.3365 79.1259 94.7058 73.7834 92.9492 69.5801C92.268 67.7575 91.053 66.0278 89.9102 64.4014C88.4502 62.3237 87.108 60.413 87.1465 58.6895C87.6621 57.9538 88.1 57.2558 88.5254 56.5771L88.6855 56.3223C88.7399 56.2357 88.7943 56.1494 88.8486 56.0635L88.9502 55.9014C92.7884 49.867 91.7181 42.2586 86.5586 38.9072Z" fill="white"/>
</g>
<defs>
<clipPath id="clip0_1357_930">
<path d="M0 38.4C0 17.1923 17.1923 0 38.4 0H89.6C110.808 0 128 17.1923 128 38.4V89.6C128 110.808 110.808 128 89.6 128H38.4C17.1923 128 0 110.808 0 89.6V38.4Z" fill="white"/>
</clipPath>
</defs>
</svg>

<svg xmlns="http://www.w3.org/2000/svg" viewBox="0 0 128 128"><rect width="128" height="128" fill="#ffa012" rx="38" ry="38"/><path fill="#fff" d="M64 16c26.51 0 48 21.49 48 48s-21.49 48-48 48-48-21.49-48-48 21.49-48 48-48m22.559 22.907c-3.678-2.389-8.442-1.97-12.264.655q-.368.254-.71.5l-1.32.959c-.647.464-1.266.877-1.94 1.213A23.3 23.3 0 0 0 64 41.366c-2.19 0-4.312.303-6.324.868-.675-.336-1.294-.75-1.942-1.214l-1.32-.959a40 40 0 0 0-.709-.5c-3.822-2.623-8.585-3.043-12.264-.654-5.159 3.352-6.23 10.96-2.392 16.994l.102.162q.083.13.163.26l.322.511c.375.598.767 1.212 1.217 1.855.039 1.724-1.303 3.635-2.763 5.712-1.143 1.627-2.358 3.356-3.04 5.18-1.756 4.202-1.386 9.545 1.412 14.168 2.976 4.916 7.92 7.731 12.695 7.756 1.43.007 5.49.161 8.004.262 1.806 1.719 4.634 2.85 6.839 2.85s5.033-1.131 6.839-2.85c2.513-.1 6.573-.255 8.003-.262 4.776-.025 9.72-2.84 12.696-7.756 2.799-4.623 3.168-9.966 1.411-14.169-.681-1.823-1.896-3.552-3.039-5.179-1.46-2.077-2.802-3.988-2.763-5.711a48 48 0 0 0 1.378-2.113l.16-.255.164-.259.101-.162c3.838-6.034 2.768-13.642-2.391-16.994"/></svg>
